X:1
T:Only an Armor Bearer
T:Only an Armor Bearer
T:Philip Paul Bliss
T:Philip Paul Bliss, 1871
T:Public Domain Courtesy of the Cyber Hymnal™
T:Public Domain Courtesy of the Cyber Hymnal™
C:Philip Paul Bliss
Z:Public Domain
Z:Courtesy of the Cyber Hymnal™
%%score ( 1 2 ) ( 3 4 ) 5
L:1/8
Q:1/4=105
M:4/4
K:Bb
V:1 treble 
V:2 treble 
V:3 treble 
V:4 treble 
V:5 bass 
V:1
 F2 F>F GFDF | B2 B>c B4 | A2 G>G G^FGG | c2 B2 A4 | F2 F>F GFDF | B2 c2 d4 | eeee d2 c2 | %7
w: 1.~On- ly an ar- mor bear- er,|firm- ly I stand,|Wait- ing to fol- low at the|King’s com- mand;|March- ing, if “On- ward” shall the|or- der be,|Stand- ing by my cap- tain,|
w: 2.~On- ly an ar- mor bear- er,|now in the field,|Guard- ing a shin- ing hel- met,|sword, and shield,|Wait- ing to hear the thrill- ing|bat- tle cry,|Rea- dy then to an- swer,|
w: 3.~On- ly an ar- mor bear- er,|yet may I share|Glo- ry im- mor- tal, and a|bright crown wear;|If in the bat- tle to my|trust I’m true,|Mine shall be the hon- ors|
 BAGA B4 ||"^Refrain" [Fc]2 [Fc]>[Fc] [Fc][Fc] [Fc]2 | [Bd]2 [Bd]>[Bd] [Fc]4 | %10
w: serv- ing faith- ful- ly.|||
w: “Mas- ter, here am I.”|Hear ye the bat- tle cry!|“For- ward!” the call;|
w: in the Grand Re- view.|||
 [FA]2 [FA]>[FG] [FA]2 [GB][Ac] | [GB]2 [FA]>[=EG] F4 x3 | [DF]2 [Fd]>[Fd] [Ec][DB][FA][EG] | %13
w: |||
w: See, see the falt- ’ring ones,|back- ward they fall;|Sure- ly my cap- tain may de-|
w: |||
 [DF]2 [B,D]2 [DF]4 | [EG]2 [EG]>[EG] [Ec][EB][EA][EG] | [DF]2 [Fc]2 [Fc]4 | %16
w: |||
w: pend on me,|Tho’ but an ar- mor bear- er|I may be;|
w: |||
 [Fd]2 [Fd]>[Fd] [Ec][DB][FA][EG] | [DF]2 [B,D]2 [DF]4 | [EG]2 [EG]>[EG] [Ec][EB][EA][EG] | %19
w: |||
w: Sure- ly my cap- tain may de-|pend on me,|Tho’ but an ar- mor bear- er|
w: |||
 [DF]2 [EA]2 [DB]4 |] %20
w: |
w: I may be.|
w: |
V:2
 x8 | x8 | x8 | x8 | x8 | x8 | x8 | x8 || x8 | x8 | x8 | x4 F4 x3 | x8 | x8 | x8 | x8 | x8 | x8 | %18
 x8 | x8 |] %20
V:3
 z2 [B,DF]2 z2 [B,DF]2 | z2 [B,DF]2 z2 [B,DF]2 | z2 [B,EG]2 z2 [B,EG]2 | z2 [C=EG]2 (z DB,A,) | %4
 z2 [B,DF]2 z2 [B,DF]2 | z2 [B,DF]2 z2 [B,DF]2 | [A,E]4 ([B,D]2 [B,C]2 | [B,D]2 [A,E]2 [B,D]4) || %8
 F,2 F,>F, F,F, [F,A,]2 | B,2 B,>B, [F,A,]4 | [F,C]2 [F,C]>[F,C] [F,C]2 [F,C][F,C] | %11
 [C,C]2 [C,C]>[C,C] z x6 | [B,,B,]2 [B,,B,]>[B,,B,] [B,,B,][B,,B,][B,,B,][B,,B,] | %13
 [B,,B,]2 [B,,F,]2 [B,,B,]4 | [E,B,]2 [E,B,]>[E,B,] [E,B,][E,B,][E,B,][E,B,] | %15
 [F,B,]2 [F,A,]2 [F,A,]4 | [B,,B,]2 [B,,B,]>[B,,B,] [B,,B,][B,,B,][B,,B,][B,,B,] | %17
 [B,,B,]2 [B,,F,]2 [B,,B,]4 | [E,B,]2 [E,B,]>[E,B,] [E,B,][E,B,][E,B,][E,B,] | %19
 [F,B,]2 [F,C]2 [B,,B,]4 |] %20
V:4
 x8 | x8 | x8 | x4 [A,CF]4 | x8 | x8 | x8 | x8 || F,2 F,>F, F,F, x2 | B,2 B,>B, x4 | x8 | %11
 x4 [F,A,]4 E,D,C, | x8 | x8 | x8 | x8 | x8 | x8 | x8 | x8 |] %20
V:5
 B,,2 z2 B,,2 z2 | B,,2 z2 B,,2 z2 | E,2 z2 E,2 z2 | C,2 z2 [F,,F,]4 | B,,2 z2 B,,2 z2 | %5
 B,,2 z2 B,,2 z2 | C,4 D,2 E,2 | [F,,F,]4 [B,,F,]4 || x8 | x8 | x8 | x11 | x8 | x8 | x8 | x8 | x8 | %17
 x8 | x8 | x8 |] %20

